X: 36461
T: Second Wind, The
R: reel
M: 4/4
K: Cmajor
cA|:GEDG ECCA|GCEG Acde|cAAG GAAG|AccE D2 cA|
GEDG ECCA|GCEG Acde|cAAG GAAc|1 GEDE C2 cA:|2 GEDE Ccde||
|:geed c3 d|ecde cAAG|F3 G AccA|GCEC Dcde|
geed c3 d|ecde cAAG|F3 G AccA|1 GEDE Ccde:|2 GEDE C2 cA||

